exported-svg/briefcase.svg

<svg height="24" viewBox="0 0 24 24" width="24" xmlns="http://www.w3.org/2000/svg"><path d="m7.5 6.5v-1.5c0-1.38071187 1.11928813-2.5 2.5-2.5h4c1.3807119 0 2.5 1.11928813 2.5 2.5v1.5h3.5c1.3807119 0 2.5 1.11928813 2.5 2.5v10c0 1.3807119-1.1192881 2.5-2.5 2.5h-16c-1.38071187 0-2.5-1.1192881-2.5-2.5v-10c0-1.38071187 1.11928813-2.5 2.5-2.5zm1 0h7v-1.5c0-.82842712-.6715729-1.5-1.5-1.5h-4c-.82842712 0-1.5.67157288-1.5 1.5zm-1 1h-3.5c-.82842712 0-1.5.67157288-1.5 1.5v10c0 .8284271.67157288 1.5 1.5 1.5h3.5zm1 0v13h7v-13zm8 0v13h3.5c.8284271 0 1.5-.6715729 1.5-1.5v-10c0-.82842712-.6715729-1.5-1.5-1.5z"/></svg>

<?xml version="1.0" encoding="UTF-8"?>
<svg width="24px" height="24px" viewBox="0 0 24 24" version="1.1" xmlns="http://www.w3.org/2000/svg" xmlns:xlink="http://www.w3.org/1999/xlink">
    <!-- Generator: Sketch 55.2 (78181) - https://sketchapp.com -->
    <title>briefcase</title>
    <desc>Created with Sketch.</desc>
    <g id="briefcase" stroke="none" stroke-width="1" fill="none" fill-rule="evenodd">
        <path d="M7.5,6.5 L7.5,5 C7.5,3.61928813 8.61928813,2.5 10,2.5 L14,2.5 C15.3807119,2.5 16.5,3.61928813 16.5,5 L16.5,6.5 L20,6.5 C21.3807119,6.5 22.5,7.61928813 22.5,9 L22.5,19 C22.5,20.3807119 21.3807119,21.5 20,21.5 L4,21.5 C2.61928813,21.5 1.5,20.3807119 1.5,19 L1.5,9 C1.5,7.61928813 2.61928813,6.5 4,6.5 L7.5,6.5 Z M8.5,6.5 L15.5,6.5 L15.5,5 C15.5,4.17157288 14.8284271,3.5 14,3.5 L10,3.5 C9.17157288,3.5 8.5,4.17157288 8.5,5 L8.5,6.5 Z M7.5,7.5 L4,7.5 C3.17157288,7.5 2.5,8.17157288 2.5,9 L2.5,19 C2.5,19.8284271 3.17157288,20.5 4,20.5 L7.5,20.5 L7.5,7.5 Z M8.5,7.5 L8.5,20.5 L15.5,20.5 L15.5,7.5 L8.5,7.5 Z M16.5,7.5 L16.5,20.5 L20,20.5 C20.8284271,20.5 21.5,19.8284271 21.5,19 L21.5,9 C21.5,8.17157288 20.8284271,7.5 20,7.5 L16.5,7.5 Z" id="Combined-Shape" fill="#000000" fill-rule="nonzero"></path>
    </g>
</svg>
